X: 11612
T: Egi
R: jig
M: 6/8
K: Gmajor
|:"G"G3 FED|"Em"E3 DEF|"C"GFG "D"ADA|"D7"AdA "G"BAG
"Em"G2 gfgd|"Am"ABc "G"BAG|"C"G4 cd|1 "C"gfd "D7"BcA:|2 "C"gfg "D"a2d||
|:"D"A4 _Bc|"Gm"_BA G2 _Bd|"C"edc "F"=fec|"D"d4 fg
"D"a2 a bag|"C"gfg dBA|"Bb"G4 cd|1 "C"gfg "D"a2d:|2 "C"ede "D"fga||
|:"G"b2 a2 g2|"D"f2 g2 d2|"Em"e6|"C"d2 c G2 A|
"G"B6|"B/G7"Bcd g2 a|"C"g6|"Am"e2 g c'2 d'|
"D"a4 d'a|"C"c'ba "D"gfg|"Em"e2 e gfe|"G"d2 B A2 G|
"Em"G2 B2 d2|"C"g2 f2 d2|"Bb"d6|1 "C"ede "D"fga:|2 z3 "D"cBA||

